source/img/sprite/days.svg

<svg width="20" height="20" viewBox="0 0 20 20" fill="none" xmlns="http://www.w3.org/2000/svg">
<path d="M13.545 6.45505C12.6455 5.55558 11.3757 4.97357 10 4.97357C8.62433 4.97357 7.35449 5.52912 6.45502 6.45505C5.55555 7.35451 4.97354 8.62435 4.97354 10C4.97354 11.3757 5.55555 12.6455 6.45502 13.545C7.35449 14.4444 8.62433 15.0265 10 15.0265C11.3757 15.0265 12.6455 14.4709 13.545 13.545C14.4444 12.6455 15.0265 11.3757 15.0265 10C15.0265 8.62435 14.4709 7.35451 13.545 6.45505ZM12.5926 12.5926C11.9312 13.254 11.0053 13.6508 10 13.6508C8.9947 13.6508 8.06878 13.254 7.4074 12.5926C6.74603 11.9312 6.3492 11.0053 6.3492 10C6.3492 8.99472 6.74603 8.0688 7.4074 7.40742C8.06878 6.74605 8.9947 6.34923 10 6.34923C11.0053 6.34923 11.9312 6.74605 12.5926 7.40742C13.254 8.0688 13.6508 8.99472 13.6508 10C13.6508 11.0053 13.254 11.9312 12.5926 12.5926Z" fill="white"/>
<path d="M19.3122 9.3122H17.2751C16.9048 9.3122 16.5873 9.62966 16.5873 10C16.5873 10.3704 16.9048 10.6879 17.2751 10.6879H19.3122C19.6825 10.6879 20 10.3704 20 10C20 9.62966 19.6825 9.3122 19.3122 9.3122Z" fill="white"/>
<path d="M9.99999 16.5873C9.62962 16.5873 9.31216 16.9048 9.31216 17.2751V19.3122C9.31216 19.6825 9.62962 20 9.99999 20C10.3704 20 10.6878 19.6825 10.6878 19.3122V17.2751C10.6878 16.9048 10.3704 16.5873 9.99999 16.5873Z" fill="white"/>
<path d="M17.0635 16.1111L15.6085 14.656C15.3704 14.3915 14.9207 14.3915 14.6561 14.656C14.3916 14.9206 14.3916 15.3439 14.6561 15.6084L16.1111 17.0634C16.3757 17.328 16.799 17.328 17.0635 17.0634C17.3281 16.7989 17.3281 16.3756 17.0635 16.1111Z" fill="white"/>
<path d="M9.99999 0C9.62962 0 9.31216 0.317459 9.31216 0.687829V2.72486C9.31216 3.09523 9.62962 3.41269 9.99999 3.41269C10.3704 3.41269 10.6878 3.09523 10.6878 2.72486V0.687829C10.6878 0.317459 10.3704 0 9.99999 0Z" fill="white"/>
<path d="M17.0899 2.93653C16.8254 2.67198 16.4021 2.67198 16.1376 2.93653L14.6825 4.39155C14.418 4.6561 14.418 5.07938 14.6825 5.34393C14.9206 5.60848 15.3704 5.60848 15.6349 5.34393L17.0899 3.88891C17.3545 3.62436 17.3545 3.20108 17.0899 2.93653Z" fill="white"/>
<path d="M2.72487 9.3122H0.687831C0.31746 9.3122 0 9.62966 0 10C0 10.3704 0.291005 10.6879 0.687831 10.6879H2.72487C3.09524 10.6879 3.4127 10.3704 3.4127 10C3.4127 9.62966 3.09524 9.3122 2.72487 9.3122Z" fill="white"/>
<path d="M5.31746 14.656C5.07937 14.3915 4.62963 14.3915 4.36508 14.656L2.91005 16.1111C2.6455 16.3756 2.6455 16.7989 2.91005 17.0634C3.1746 17.328 3.59788 17.328 3.86243 17.0634L5.31746 15.6084C5.58201 15.3439 5.58201 14.9206 5.31746 14.656Z" fill="white"/>
<path d="M5.31746 4.39155L3.86243 2.93653C3.59788 2.67198 3.1746 2.67198 2.91005 2.93653C2.6455 3.20108 2.6455 3.62436 2.91005 3.88891L4.36508 5.34393C4.62963 5.60848 5.05291 5.60848 5.31746 5.34393C5.58201 5.07938 5.58201 4.6561 5.31746 4.39155Z" fill="white"/>
</svg>

<svg width="20" height="20" fill="none" xmlns="http://www.w3.org/2000/svg"><path d="M13.54 6.46A5.04 5.04 0 0 0 10 4.97 5.04 5.04 0 0 0 4.97 10a5.04 5.04 0 0 0 8.57 3.54 4.93 4.93 0 0 0 0-7.09Zm-.95 6.13A3.66 3.66 0 0 1 10 13.65c-1 0-1.93-.4-2.6-1.06A3.66 3.66 0 0 1 6.36 10c0-1 .4-1.93 1.06-2.6A3.66 3.66 0 0 1 10 6.36c1 0 1.93.4 2.6 1.06A3.66 3.66 0 0 1 13.64 10c0 1-.4 1.93-1.06 2.6ZM19.31 9.31h-2.03a.7.7 0 0 0-.7.69c0 .37.32.69.7.69h2.03A.7.7 0 0 0 20 10a.7.7 0 0 0-.69-.69ZM10 16.59a.7.7 0 0 0-.69.69v2.03c0 .37.32.69.69.69a.7.7 0 0 0 .69-.69v-2.03a.7.7 0 0 0-.69-.7ZM17.06 16.11l-1.45-1.45c-.24-.27-.69-.27-.95 0a.67.67 0 0 0 0 .95l1.45 1.45c.27.27.69.27.95 0a.67.67 0 0 0 0-.95ZM10 0a.7.7 0 0 0-.69.69v2.03c0 .38.32.7.69.7a.7.7 0 0 0 .69-.7V.7A.7.7 0 0 0 10 0ZM17.09 2.94a.67.67 0 0 0-.95 0l-1.46 1.45a.67.67 0 0 0 0 .95c.24.27.69.27.95 0L17.1 3.9a.67.67 0 0 0 0-.95ZM2.72 9.31H.7A.7.7 0 0 0 0 10c0 .37.3.69.69.69h2.03a.7.7 0 0 0 .7-.69.7.7 0 0 0-.7-.69ZM5.32 14.66c-.24-.27-.69-.27-.95 0L2.9 16.1a.67.67 0 0 0 0 .95c.26.27.69.27.95 0l1.46-1.45a.67.67 0 0 0 0-.95ZM5.32 4.4 3.86 2.93a.67.67 0 0 0-.95 0 .67.67 0 0 0 0 .95l1.46 1.45c.26.27.68.27.95 0a.67.67 0 0 0 0-.95Z" fill="#fff"/></svg>
